T: Three Steps Forward (Two Steps Back)
M: 4/4
L: 1/8
K: Gmaj
|:deee BdAd|GBAc Bed2|EGBe fage|dBA^F _E^FAB|
deee BdAd|GBAc Bed2|EGBe fage|dBA^d e4:|
ef|:g3f gecd|ecAc e4|EFGA Begf|afge ^d2 ef|
|g3f gecd|ecAc e3D|EGFA GBef|gfed eBef:|
||"variation going into Torn Jacket"
EGFA GFGB|^cA^ce ge^cA||
